v/0.4.11/design-resources/icons/wf_icons/comment-outlined.svg

<?xml version="1.0" encoding="utf-8"?>
<!-- Generated by IcoMoon.io -->
<!DOCTYPE svg PUBLIC "-//W3C//DTD SVG 1.1//EN" "http://www.w3.org/Graphics/SVG/1.1/DTD/svg11.dtd">
<svg version="1.1" xmlns="http://www.w3.org/2000/svg" xmlns:xlink="http://www.w3.org/1999/xlink" width="512" height="512" viewBox="0 0 512 512">
<g>
</g>
	<path d="M448 32h-384c-35.346 0-64 28.653-64 64v224c0 35.346 28.654 64 64 64h32l160 128v-128h192c35.346 0 64-28.654 64-64v-224c0-35.347-28.654-64-64-64zM480 320c0 17.644-14.356 32-32 32h-224v96l-112-96h-48c-17.645 0-32-14.356-32-32v-224c0-17.644 14.355-32 32-32h384c17.644 0 32 14.356 32 32v224z" fill="#595959" />
</svg>

<svg xmlns="http://www.w3.org/2000/svg" width="512" height="512" viewBox="0 0 512 512"><path stroke="#449FDB" d="M0 0"/><path d="M448 32H64C28.654 32 0 60.653 0 96v224c0 35.346 28.654 64 64 64h32l160 128V384h192c35.346 0 64-28.654 64-64V96c0-35.347-28.654-64-64-64zm32 288c0 17.644-14.356 32-32 32H224v96l-112-96H64c-17.645 0-32-14.356-32-32V96c0-17.644 14.355-32 32-32h384c17.644 0 32 14.356 32 32v224z" fill="#595959"/></svg>
